static/logos/auth0-glyph-color.svg

<svg width="50" height="56" viewBox="0 0 50 56" fill="none" xmlns="http://www.w3.org/2000/svg">
<g clip-path="url(#clip0_1_3454)">
<path d="M39.589 44.5931L33.9926 27.5605L48.6424 17.0368H30.5336L24.9367 0.0049261L24.935 0.000328407H43.0465L48.6448 17.0351L48.6452 17.0348L48.6498 17.0322C51.9009 26.9147 48.5524 38.1547 39.589 44.5931ZM10.2831 44.5931L10.2784 44.5964L24.9321 55.1228L39.589 44.5934L24.9367 34.0667L10.2831 44.5931ZM1.22598 17.0325C-2.19638 27.45 1.77634 38.4883 10.2801 44.595L10.2814 44.5898L15.8786 27.5583L1.23196 17.0364H19.3366L24.9338 0.00459771L24.935 0H6.82253L1.22598 17.0325Z" fill="black"/>
</g>
<defs>
<clipPath id="clip0_1_3454">
<rect width="50" height="55.1724" fill="white"/>
</clipPath>
</defs>
</svg>

<svg xmlns="http://www.w3.org/2000/svg" width="57.143" height="64" fill="none" viewBox="0 0 50 56"><g clip-path="url(#a)"><path fill="#000" d="M39.589 44.593 33.993 27.56l14.65-10.523h-18.11L24.938.005 24.935 0h18.112l5.598 17.035.005-.003c3.25 9.883-.098 21.123-9.061 27.561Zm-29.306 0-.005.003 14.654 10.527 14.657-10.53-14.652-10.526-14.654 10.526Zm-9.057-27.56c-3.422 10.417.55 21.455 9.054 27.562l.001-.005 5.598-17.032L1.232 17.036h18.105L24.934.005 24.935 0H6.823L1.226 17.032Z"/></g><defs><clipPath id="a"><path fill="#fff" d="M0 0h50v55.172H0z"/></clipPath></defs></svg>
